X: 1
T: Le 6/8 De La Grosse Ile
M: 6/8
L: 1/8
R: jig
K: Gmaj
DGG AGA | B3 BGB | A2 B cBA | AGE E2 D |
DGG AGA | B3 BGB | A2 B cBA |1 AFA G2 E :|2 AFA G2 d ||
dBd g2 e | dGA BGA | B2 d edB | BGB A2 d |
dBd g2 e | dGA BGA | B2 d edB |1 AFA G2 d :|2 AFA G2 E ||
